X: 24480
T: Lucy Campbell
R: reel
M: 4/4
K: Dmajor
dB|AD (3DDD D2 dB|ADFA BE~E2|ADFA dfec|dBAF AD~D2|
AD (3DDD AD BD|ADFA BE~E2|ADFA dfec|dBAF AD~D2||
dBAB defe|d2cA BE~E2|dBAB defe|dBAF AD~D2|
dBAB defe|dB~B2 gB~B2|dBAB defe|dBAF AD~D2||
faaf defg|a2fa b~e3|faaf defe|dBAF AD~D2|
faaf defg|a2fa b~e3|~g3e ~f3e|dBAF AD~D2||
df~f2 dfef|df~f2 afef|dffe ~f3e|dBAF AD~D2|
df~f2 dfef|df~f2 afef|~g3e ~f3e|dBAF AD~D2||

